X: 2358
M: C
L: 1/8
K: G
(3GGG BG d2Bd | efge edBc |\
ceAc BdGB |[1,3 ABcA GFED :|[2,4 AGFA G2 ::\
d2 |\
gfga bgdg |
edef gdBd |\
gfga bgdg | egfa g2(gd) |\
gfga bgdg | edef gdBG |\


